dist/img/icons/Header/ios-email.svg

<svg width="35" height="35" viewBox="0 0 35 35" fill="none" xmlns="http://www.w3.org/2000/svg">
<path d="M17.0734 19.0969C16.1109 19.0969 15.3234 18.3094 15.3234 17.3469C15.3234 16.3844 16.1109 15.5969 17.0734 15.5969C18.0359 15.5969 18.8234 16.3844 18.8234 17.3469C18.8234 18.3094 18.0359 19.0969 17.0734 19.0969Z" fill="#721BE3"/>
<path d="M17.5 25.1562C19.5306 25.1562 21.478 24.3496 22.9138 22.9138C24.3496 21.478 25.1562 19.5306 25.1562 17.5C25.1562 15.4694 24.3496 13.522 22.9138 12.0862C21.478 10.6504 19.5306 9.84375 17.5 9.84375C15.4694 9.84375 13.522 10.6504 12.0862 12.0862C10.6504 13.522 9.84375 15.4694 9.84375 17.5C9.84375 19.5306 10.6504 21.478 12.0862 22.9138C13.522 24.3496 15.4694 25.1562 17.5 25.1562ZM17.5 12.5781C20.1797 12.6109 22.3563 14.8531 22.3563 17.5547V18.4406C22.3563 19.4141 21.5578 20.2125 20.5844 20.2125C19.9172 20.2125 19.3375 19.8406 19.0312 19.2937C18.5281 19.7969 17.8281 20.1141 17.0625 20.1141C15.5313 20.1141 14.2844 18.8672 14.2844 17.3359C14.2844 15.8047 15.5313 14.5578 17.0625 14.5578C17.7297 14.5578 18.3313 14.7984 18.8125 15.1813V15.0828C18.8125 14.7984 19.0641 14.5687 19.3484 14.5687C19.6328 14.5687 19.8625 14.7984 19.8625 15.0828V18.4516C19.8625 18.6459 19.9397 18.8323 20.0771 18.9697C20.2146 19.1072 20.401 19.1844 20.5953 19.1844C20.7897 19.1844 20.9761 19.1072 21.1135 18.9697C21.2509 18.8323 21.3281 18.6459 21.3281 18.4516V17.5656C21.3281 15.4109 19.6 13.6391 17.4891 13.6062C16.4391 13.6062 15.4437 14 14.7 14.7328C13.9562 15.4656 13.5406 16.45 13.5406 17.5C13.5406 19.6438 15.2906 21.3937 17.4344 21.3937C17.5707 21.3937 17.7015 21.4479 17.7979 21.5443C17.8943 21.6407 17.9484 21.7715 17.9484 21.9078C17.9484 22.0442 17.8943 22.1749 17.7979 22.2713C17.7015 22.3677 17.5707 22.4219 17.4344 22.4219C14.7219 22.4219 12.5125 20.2125 12.5125 17.5C12.5125 16.1766 13.0266 14.9297 13.9781 14C14.9187 13.0594 16.1766 12.5563 17.5 12.5781Z" fill="#721BE3"/>
<path d="M1.09375 7.66719C1.09375 6.45094 2.07594 5.46875 3.29219 5.46875H31.7188C32.9317 5.46875 33.9063 6.4575 33.9063 7.66719V27.3438C33.9063 28.5567 32.9175 29.5312 31.7078 29.5312H3.29219C3.00337 29.5317 2.7173 29.4751 2.45037 29.3648C2.18345 29.2545 1.94093 29.0925 1.7367 28.8883C1.53247 28.6841 1.37055 28.4416 1.26022 28.1746C1.14989 27.9077 1.09332 27.6216 1.09375 27.3328V7.66719ZM3.28125 7.66172V8.20531L10.2266 12.6306C9.81606 13.2415 9.48457 13.9019 9.24 14.5961L3.28125 10.7986V24.8063L9.42813 20.8895C9.71185 21.5647 10.0793 22.2015 10.5219 22.785L3.36875 27.3438H31.6477L24.4759 22.7795C24.9187 22.1954 25.2861 21.5578 25.5697 20.8819L31.7188 24.7964V10.8063L25.7556 14.6016C25.5118 13.9071 25.181 13.2464 24.7713 12.635L31.7188 8.21516V7.65953L31.7144 7.65625H3.28672L3.28344 7.65844L3.28235 7.66063L3.28125 7.66172Z" fill="#721BE3"/>
</svg>

<svg width="35" height="35" fill="none" xmlns="http://www.w3.org/2000/svg"><path d="M17.073 19.097c-.962 0-1.75-.788-1.75-1.75 0-.963.788-1.75 1.75-1.75.963 0 1.75.787 1.75 1.75 0 .962-.787 1.75-1.75 1.75Z" fill="#721BE3"/><path d="M17.5 25.156a7.656 7.656 0 1 0 0-15.312 7.656 7.656 0 0 0 0 15.312Zm0-12.578c2.68.033 4.856 2.275 4.856 4.977v.886c0 .973-.798 1.771-1.772 1.771a1.781 1.781 0 0 1-1.553-.918 2.787 2.787 0 0 1-1.968.82 2.782 2.782 0 0 1-2.779-2.778 2.782 2.782 0 0 1 2.778-2.778c.668 0 1.27.24 1.75.623v-.098c0-.285.252-.514.536-.514.285 0 .515.23.515.514v3.369a.733.733 0 0 0 1.465 0v-.886c0-2.155-1.728-3.927-3.839-3.96-1.05 0-2.045.394-2.789 1.127a3.862 3.862 0 0 0-1.16 2.767 3.902 3.902 0 0 0 3.894 3.894.514.514 0 0 1 0 1.028 4.93 4.93 0 0 1-4.922-4.922c0-1.323.515-2.57 1.466-3.5a4.837 4.837 0 0 1 3.522-1.422Z" fill="#721BE3"/><path d="M1.094 7.667c0-1.216.982-2.198 2.198-2.198H31.72c1.213 0 2.187.988 2.187 2.198v19.677a2.193 2.193 0 0 1-2.198 2.187H3.292a2.194 2.194 0 0 1-2.198-2.198V7.667Zm2.187-.005v.543l6.946 4.426a8.716 8.716 0 0 0-.987 1.965L3.281 10.8v14.007l6.147-3.916a8.737 8.737 0 0 0 1.094 1.895l-7.153 4.559h28.279l-7.172-4.565a8.736 8.736 0 0 0 1.094-1.897l6.149 3.914v-13.99l-5.963 3.796a8.723 8.723 0 0 0-.985-1.967l6.948-4.42V7.66l-.005-.004H3.287l-.004.002v.003H3.28Z" fill="#721BE3"/></svg>
